X:1
T:As Time Goes By
C:Herman Hupfeld
M:4/4
L:1/4
Q:1/4=80
K:F
C C C C | A3/2 G/2 F2 | G G G G | E3/2 F/2 G2 |
A A A A | c3/2 B/2 A2 | G A G F | C4 |
c c c c | A3/2 G/2 F2 | G G G G | E3/2 F/2 G2 |
A G F E | F2 G2 | A G F E | F4 |]
